im/paragraph-center.svg

<svg version="1.1" xmlns="http://www.w3.org/2000/svg" viewBox="0 0 16 16" height="1em" width="1em">
  <path fill="#000000" d="M0 1h16v2h-16zM3 4h10v2h-10zM3 10h10v2h-10zM0 7h16v2h-16zM0 13h16v2h-16z"/>
</svg>

<svg xmlns="http://www.w3.org/2000/svg" viewBox="0 0 16 16" height="1em" width="1em">
  <path d="M0 1h16v2H0zm3 3h10v2H3zm0 6h10v2H3zM0 7h16v2H0zm0 6h16v2H0z"/>
</svg>
